resources/svg/major-capital.svg

<svg xmlns="http://www.w3.org/2000/svg" viewBox="0 0 20 20" fill="currentColor"><path fill-rule="evenodd" d="M6.32755 11.0184H9.40152C8.97561 11.9693 8.6982 13.0511 8.57696 14.1698C6.42696 14.6927 4.73026 16.3739 4.18514 18.5152C3.98076 19.318 4.67157 20 5.5 20H14.5C15.3284 20 16.0192 19.318 15.8149 18.5152C15.2002 16.1009 13.1215 14.2714 10.5798 14.0277C10.7522 12.5047 11.4179 11.0799 12.4755 9.97047L15.6093 9.32174C17.5056 8.92252 18.9029 7.52526 19.2023 5.72879L20.0007 1.2376C20.0007 0.95327 19.9501 0.719568 19.8489 0.500435C19.7658 0.320659 19.62 0.17416 19.4364 0.0998387C19.1903 0.000202935 18.9205 -0.0324694 18.7033 0.0399471L14.1123 1.63681C12.216 2.23564 11.0184 3.93231 11.0184 5.82859V8.62311L10.8187 8.84268L10.2199 6.0282C9.8207 4.13192 8.22383 2.73466 6.22775 2.33544L1.13773 1.53701C0.775554 1.49017 0.439103 1.53701 0.239494 1.83642C0.039886 2.13584 -0.0599181 2.53505 0.0398861 2.83447L1.73656 7.82468C2.43519 9.72096 4.23166 11.0184 6.32755 11.0184ZM14.6113 3.53309L17.7052 2.53505L17.1064 5.32957C16.9068 6.32761 16.1084 7.12605 15.1103 7.32566L12.9146 7.82468V5.82859C12.9146 4.83055 13.6133 3.83251 14.6113 3.53309ZM3.63284 7.22585L2.53499 3.83251L5.92834 4.33153C7.12599 4.53114 8.12403 5.42938 8.32364 6.52722L8.72285 9.02233H6.32755C5.1299 9.02233 4.03206 8.3237 3.63284 7.22585Z" fill="#5C5F62"/></svg>

<svg xmlns="http://www.w3.org/2000/svg" viewBox="0 0 20 20" fill="currentColor"><path fill-rule="evenodd" d="M6.328 11.018h3.074c-.426.951-.704 2.033-.825 3.152a6.01 6.01 0 0 0-4.392 4.345c-.204.803.487 1.485 1.315 1.485h9c.828 0 1.52-.682 1.315-1.485a6.005 6.005 0 0 0-5.235-4.487 7.025 7.025 0 0 1 1.896-4.058l3.133-.648c1.897-.4 3.294-1.797 3.593-3.593l.799-4.491a1.7 1.7 0 0 0-.152-.738.784.784 0 0 0-.413-.4c-.246-.1-.515-.132-.733-.06l-4.59 1.597c-1.897.599-3.095 2.295-3.095 4.192v2.794l-.2.22-.598-2.815c-.4-1.896-1.996-3.293-3.992-3.693l-5.09-.798c-.362-.047-.699 0-.899.3-.2.299-.299.698-.2.997l1.698 4.99a4.869 4.869 0 0 0 4.59 3.194Zm8.283-7.485 3.094-.998-.599 2.795a2.564 2.564 0 0 1-1.996 1.996l-2.195.499v-1.996c0-.998.698-1.996 1.696-2.296Zm-10.978 3.693-1.098-3.393 3.393.499c1.198.2 2.196 1.097 2.396 2.195l.399 2.495h-2.395c-1.198 0-2.296-.698-2.695-1.796Z"/></svg>
